images/minds.svg

<svg height="250" viewBox="0 0 250 250" width="250" xmlns="http://www.w3.org/2000/svg"><path d="m108.949219 207.5-1.234375 18.125zm0 0" fill="#656565"/><path d="m93.515625 219.375 15.585937-13.125 15.585938 25.625zm0 0" fill="#656565"/><path d="m93.515625 180.625v38.75l15.585937-13.125zm0 0" fill="#787778"/><path d="m140.273438 206.25-15.585938 25.625 31.171875-12.5zm0 0" fill="#5c5c5c"/><path d="m155.859375 219.375-15.585937-13.125 15.585937-25.625zm0 0" fill="#787778"/><path d="m93.515625 180.625h62.34375l-31.171875 51.25zm0 0" fill="#4a4a4a"/><g fill="#fed12f"><path d="m99.75 62.5 66.085938 27.5-47.382813 38.125zm0 0"/><path d="m149.625 16.25 37.40625 38.75-21.195312 35zm0 0"/><path d="m93.515625 180.625 68.578125-20-6.234375 20zm0 0"/><path d="m87.28125 160.625 31.171875-32.5-24.9375 52.5zm0 0"/><path d="m62.34375 55 37.40625-38.75v46.25zm0 0"/></g><path d="m118.453125 128.125 43.640625 32.5 3.742188-70.625zm0 0" fill="#fff3cb"/><path d="m118.453125 128.125-59.851563-10.625 28.679688 43.125zm0 0" fill="#fff3cb"/><path d="m99.75 62.5 49.875-46.25 16.210938 73.75zm0 0" fill="#ffdd63"/><path d="m58.601562 117.5 41.148438-55 18.703125 65.625zm0 0" fill="#ffedac"/><path d="m93.515625 180.625 24.9375-52.5 43.640625 32.5zm0 0" fill="#ffdd63"/><path d="m162.09375 160.625 3.742188-70.625 24.9375 27.5zm0 0" fill="#ffdd63"/><path d="m58.601562 117.5 3.742188-62.5 37.40625 7.5zm0 0" fill="#ffdd63"/><path d="m165.835938 90 21.195312-35 3.742188 62.5zm0 0" fill="#fee382"/><path d="m149.625 16.25-49.875 46.25v-46.25zm0 0" fill="#fef1c0"/></svg>

<?xml version="1.0" encoding="UTF-8"?>
<svg xmlns="http://www.w3.org/2000/svg" xmlns:xlink="http://www.w3.org/1999/xlink" width="250px" height="250px" viewBox="0 0 250 250" version="1.1">
<g id="surface1">
<path style=" stroke:none;fill-rule:nonzero;fill:rgb(39.607844%,39.607844%,39.607844%);fill-opacity:1;" d="M 108.949219 207.5 L 107.714844 225.625 Z M 108.949219 207.5 "/>
<path style=" stroke:none;fill-rule:nonzero;fill:rgb(39.607844%,39.607844%,39.607844%);fill-opacity:1;" d="M 93.515625 219.375 L 109.101562 206.25 L 124.6875 231.875 Z M 93.515625 219.375 "/>
<path style=" stroke:none;fill-rule:nonzero;fill:rgb(47.058824%,46.666667%,47.058824%);fill-opacity:1;" d="M 93.515625 180.625 L 93.515625 219.375 L 109.101562 206.25 Z M 93.515625 180.625 "/>
<path style=" stroke:none;fill-rule:nonzero;fill:rgb(36.078432%,36.078432%,36.078432%);fill-opacity:1;" d="M 140.273438 206.25 L 124.6875 231.875 L 155.859375 219.375 Z M 140.273438 206.25 "/>
<path style=" stroke:none;fill-rule:nonzero;fill:rgb(47.058824%,46.666667%,47.058824%);fill-opacity:1;" d="M 155.859375 219.375 L 140.273438 206.25 L 155.859375 180.625 Z M 155.859375 219.375 "/>
<path style=" stroke:none;fill-rule:nonzero;fill:rgb(29.019609%,29.019609%,29.019609%);fill-opacity:1;" d="M 93.515625 180.625 L 155.859375 180.625 L 124.6875 231.875 Z M 93.515625 180.625 "/>
<path style=" stroke:none;fill-rule:nonzero;fill:rgb(99.607843%,81.960785%,18.431373%);fill-opacity:1;" d="M 99.75 62.5 L 165.835938 90 L 118.453125 128.125 Z M 99.75 62.5 "/>
<path style=" stroke:none;fill-rule:nonzero;fill:rgb(99.607843%,81.960785%,18.431373%);fill-opacity:1;" d="M 149.625 16.25 L 187.03125 55 L 165.835938 90 Z M 149.625 16.25 "/>
<path style=" stroke:none;fill-rule:nonzero;fill:rgb(99.607843%,81.960785%,18.431373%);fill-opacity:1;" d="M 93.515625 180.625 L 162.09375 160.625 L 155.859375 180.625 Z M 93.515625 180.625 "/>
<path style=" stroke:none;fill-rule:nonzero;fill:rgb(99.607843%,81.960785%,18.431373%);fill-opacity:1;" d="M 87.28125 160.625 L 118.453125 128.125 L 93.515625 180.625 Z M 87.28125 160.625 "/>
<path style=" stroke:none;fill-rule:nonzero;fill:rgb(99.607843%,81.960785%,18.431373%);fill-opacity:1;" d="M 62.34375 55 L 99.75 16.25 L 99.75 62.5 Z M 62.34375 55 "/>
<path style=" stroke:none;fill-rule:nonzero;fill:rgb(100%,95.294118%,79.607844%);fill-opacity:1;" d="M 118.453125 128.125 L 162.09375 160.625 L 165.835938 90 Z M 118.453125 128.125 "/>
<path style=" stroke:none;fill-rule:nonzero;fill:rgb(100%,95.294118%,79.607844%);fill-opacity:1;" d="M 118.453125 128.125 L 58.601562 117.5 L 87.28125 160.625 Z M 118.453125 128.125 "/>
<path style=" stroke:none;fill-rule:nonzero;fill:rgb(100%,86.666667%,38.82353%);fill-opacity:1;" d="M 99.75 62.5 L 149.625 16.25 L 165.835938 90 Z M 99.75 62.5 "/>
<path style=" stroke:none;fill-rule:nonzero;fill:rgb(100%,92.941177%,67.450982%);fill-opacity:1;" d="M 58.601562 117.5 L 99.75 62.5 L 118.453125 128.125 Z M 58.601562 117.5 "/>
<path style=" stroke:none;fill-rule:nonzero;fill:rgb(100%,86.666667%,38.82353%);fill-opacity:1;" d="M 93.515625 180.625 L 118.453125 128.125 L 162.09375 160.625 Z M 93.515625 180.625 "/>
<path style=" stroke:none;fill-rule:nonzero;fill:rgb(100%,86.666667%,38.82353%);fill-opacity:1;" d="M 162.09375 160.625 L 165.835938 90 L 190.773438 117.5 Z M 162.09375 160.625 "/>
<path style=" stroke:none;fill-rule:nonzero;fill:rgb(100%,86.666667%,38.82353%);fill-opacity:1;" d="M 58.601562 117.5 L 62.34375 55 L 99.75 62.5 Z M 58.601562 117.5 "/>
<path style=" stroke:none;fill-rule:nonzero;fill:rgb(99.607843%,89.019608%,50.980395%);fill-opacity:1;" d="M 165.835938 90 L 187.03125 55 L 190.773438 117.5 Z M 165.835938 90 "/>
<path style=" stroke:none;fill-rule:nonzero;fill:rgb(99.607843%,94.509804%,75.294119%);fill-opacity:1;" d="M 149.625 16.25 L 99.75 62.5 L 99.75 16.25 Z M 149.625 16.25 "/>
</g>
</svg>
